X: 3
T: No_102_Makah_War_Song.krn
N: Derived from No_102_Makah_War_Song.krn
%%abc-version 2.0
%%abcx-abcm2ps-target-version 5.9.1 (29 Sep 2008)
%%abc-creator hum2abc beta
%%abcx-conversion-date 2019/03/15 08:36:13
%%humdrum-veritas 3775270822
%%humdrum-veritas-data 2069063178
%%linebreak <none>
%%barnumbers 0
L: 1/8
M: 3/4
K: Bb clef=bass
[K:clef=bass][M:3/4]B,2A,/G,3/ G,3/^F,/ ||  
[M:2/4]G,3G, | 
G,7/G,/ | 
G,3/G,/G,2 | 
G,D,D,2 | 
D,2z D, | 
D,2G,2 ||  
[M:3/4]G,2G,3/D,/ D,3/D,/ ||  
[M:2/4]D,4- | 
D,2z2 ||  
[M:3/4]D,2D,3/D,/ D,3/D,/ ||  
[M:2/4](D,7/G,/) | 
G,2z z/ G,/ | 
A,3/A,/A,2 [I:setbarnb 15]| 
A,G, D,3/G,/ | 
G,7/G,/ | 
G,2z z/ G,/ | 
G,3/G,/G,2 | 
G,D, D,3/D,/ | 
D,2z z/ D,/ | 
D,2G,2 ||  
[M:3/4]G,2G,3/D,/ D,3/^C,/ ||  
[M:2/4]D,4- | 
D,2z2 ||  
[M:3/4]D,2D,3/D,/ D,3/D,/ ||  
[M:2/4]D,4 | 
G,2z z/ G,/ :|]  
[M:2/4]D,4 | 
G,2z2 |]  



